X: 40399
T: Tom Keane's
R: reel
M: 4/4
K: Gmajor
|:BGGA BGdG|BGGE =F3c|BGGA BcdB|1 AGFA G3A:|2 AGFA G3B||
|:dggf d3c|Bcde =f3e|dggf dedc|1 BGAF G3B:|2 BGAF G4||

